X:1
T:Se sol d'amor (a 3)
T:Giammateo Asola
T:Source : Madrigali a due voci---Venetia---G.Vincenti---1587. Editor : André Vierendeels (20/04/17).
T:Notes : Original clefs : C1, C1, C4 Editorial accidentals above tha staff "Terza parte se piace"
T:Se sol d'amor (a 3)
T:©
T:©
T:©
T:©
T:©
T:©
C:Giammateo Asola
Z:©
%%score [ 1 2 3 ]
L:1/8
Q:1/4=120
M:2/2
K:F
V:1 treble nm="Soprano 1" snm="S 1"
V:2 treble nm="Soprano 2" snm="S 2"
V:3 treble-8 nm="Tenor" snm="T"
V:1
 G8 | B4 c4 | d2 c2 B2 A2 | G4 A4 | B2 c2 d4- | d4 c4 | d8 | z4 A4 | B4 G4 | B4 c4 | d4 B4 | %11
w: Se|sol d'a-|mor _ _ _|_ sei|de- * *||gno,|e|se sol'|il tuo'a-|mor de-|
 G4 A4 | D8 | E4 F4- | F2 D2 d4- | d4 c4 | d8 | z4 A4 | F4 G4 | E4 D4 | A2 A2 B2 d2 | c4 d4 | %22
w: gno'e d'a-|mar-|ti, d'a-|* mar- *||ti,|e|se ti|de- gni'e|voi che te sol'|a- mi,|
 z4 G4 | A4 F4 | G4 E4 | F2 D2 d4- | d2 cB c4 | d4 D4 | F2 F2 E2 E2 | D4 d4- | d2 c2 c4 | B8 | %32
w: a-|mor ve-|ra- c'e-|ter- * *||no, dun-|que mi sfor- zi|sem- pr'a|_ di- man-|dar-|
 A4 E2 F2 | G4 D2 E2 | F4 G2 A2 | B4 d4 | c4 B4 | G2 A2 B2 G2 | A4 G4 | z4 d4 | c2 A2 B2 B2 | %41
w: ti, vi- vo'a-|mor, vi- vo'a-|mor il tuo'a-|mor ben|che sia|in- * * *|de- gno,|di|lui piu sen- za|
 A2 A2 F2 G2 | A4 G2 G2 | E2 A4 G2- | G2 F2 G4 | z4 d4 | c4 B4 | A4 G2 G2 | E2 C2 D3 E | %49
w: fin che non di-|scer- no, pe-|ro non mi|_ ne- gar|poi|che mi|chia- mi, a|chie- der- t'il _|
 F2 F2 E2 E2 | G2 A2 A2 G2 | A4 z2 G2 | E2 F2 E4 | F2 F2 E2 D2 | C2 D2 D2 C2 | D4 z2 F2 | %56
w: _ mio'a- mor con|tan- to'a- mo- *|re, fa|che ti ser-|vi et a- mi'a|tut- te l'ho- *|re, a|
 E2 D2 E4 | D2 A2 A3 B | c2 d4 c2 | d2 A2 B4- | B4 A4 | G8 | ^F8 |] %63
w: tut- te l'ho-|re, a tut- te|l'ho- * *|re, a tut-|* te|l'ho-|re.|
V:2
 z8 | z8 | G8 | B4 c4 | d2 c2 B2 A2 | G4 A4 | B2 c2 d4- | d4 c4 | d8 | z4 A4 | B4 G4 | B4 c4 | %12
w: ||Se|sol d'a-|mor _ _ _|_ sei|de- * *||gno,|e|se sol'|il tuo''a-|
 d4 B4 | G4 A4 | D8 | E4 F4- | F2 D2 d4- | d4 c4 | d8 | z4 A4 | F4 G4 | E4 D4 | A2 A2 B2 d2 | %23
w: mor de-|gno'e d'a-|mar-|ti, d'a-|* mar- *||ti,|e|se ti|de- gni'e|voi che te sol'|
 c4 d4 | z4 G4 | A4 F4 | G4 E4 | F2 D2 d4- | d2 cB c4 | d4 D4 | F2 F2 E2 E2 | D4 d4- | d2 c2 c4 | %33
w: a- mi,|a-|mor ve-|ra- c'e-|ter- * *||no, dun-|que mi sfor- zi|sem- pr'a|_ di- man-|
 B8 | A4 E2 F2 | G4 D2 E2 | F4 G2 A2 | B4 d4 | c4 B4 | G2 A2 B2 G2 | A4 G4 | z4 d4 | c2 A2 B2 B2 | %43
w: dar-|ti, vi- vo'a-|mor, vi- vo'a-|mor il tuo'a-|mor ben|che sia|in- * * *|de- gno,|di|lui piu sen- za|
 A2 A2 F2 G2 | A4 G2 G2 | E2 A4 G2- | G2 F2 G4 | z4 d4 | c4 B4 | A4 G2 G2 | E2 C2 D3 E | %51
w: fin che non di-|scer- no, pe-|ro non mi|_ ne- gar,|poi|che mi|chia- mi, a|chie- der- t'il _|
 F2 F2 E2 E2 | G2 A2 A2 G2 | A4 z2 G2 | E2 F2 E4 | F2 F2 E2 D2 |"^#" C2 D2 D2 C2 | D4 z2 F2 | %58
w: _ mio'a- mor con|tan- to'a- mo- *|re fa|che ti ser-|vi et a- mi|a tut- te l'ho-|re, a|
 E2 D2 E4 | D8- | D8- | D8- | D8 |] %63
w: tut- te l'ho-|re.|_|||
V:3
 z8 | z8 | z4 G4 | G4 F4 | B8- | B4 A4 | G8 | A8 | z4 G4 | G4 F4 | B8- | B4 A4 | B4 B4 | c4 A4 | %14
w: ||Se|sol d'a-|mor|_ sei|de-|gno,|e|se sol'|il|_ tuo'a-|mor degn'|è d'a-|
 B8 | A4 A4 | B4 G4 | A4 A4 | B2 B2 G2 G2 | A4 D4 | z4 G4 | A2 A2 B2 B2 | A4 G4 | z4 d4 | %24
w: mar-|ti, e|se ti|sde- gni'e|voi che te sol'|a- mi,|a-|mor ve- ra- c'e-|ter- no,|a-|
 B2 B2 c4 | A2 d2 d2 d2 | G2 G2 A4 | D8 | z4 A4 | B2 G2 B2 B2 | A6 A2 | B4 G4 | A8 | G8 | z8 | %35
w: mor ve- ra-|ce, a- mor ve-|ra- c'e- ter-|no,|dun-|que mi sfor- zi|sem- pr'a|di- man-|dar-|ti,||
 G2 A2 B4 | A2 A2 G4 | z4 B4 | F2 F2 G4 | c4 B4 | A2 F2 G2 G2 | F4 B4 | A2 F2 G2 G2 | A2 A2 d2 e2 | %44
w: vi- vo'a- mor|il tuo'a- mor,|ben|che sia'in- de-|gno, di|lui piu sen- za|fin, di|lui piu sen- za|fin che non di-|
 d4 G2 G2 | A2 F2 G4 | A4 G4 | d4 B2 G2 | A4 G4 | z4 c4 | c2 A2 B2 B2 | A4 c4 | c2 F2 c4 | F4 G4 | %54
w: scer- no, pe-|ro non mi|ne- gar|poi che mi|chia- mi,|a|chie- der- t'il mio'a-|mor con|tan- to'a- mo-|re fa|
"^#" A2 D2 A4 | D2 D2 A2 D2 | A2 B2 A4 | D4 d4 | c2 B2 A4 | D2 d2 B3 A | G4 ^F4 | G8 | D8 |] %63
w: che ti ser-|vi et a- mi'a|tut- te l'ho-|re, a|tut- te l'ho-|re a tut- *|* te|l'ho-|re.|

